src/assets/img/icons/mask/icon-partner-eos.svg

<svg width="107" height="87" viewBox="0 0 107 87" fill="none" xmlns="http://www.w3.org/2000/svg">
<path d="M46.4399 0L33.027 18.97L25.9291 49.2437L46.4399 61.3431L67.0645 49.2437L60.0928 18.97L46.4399 0ZM59.5497 19.0711L56.026 30.1601L46.7178 14.0696V1.21246L59.5497 19.0711ZM46.4526 14.638L55.8113 30.8168L50.1026 48.7512H42.8531L37.2075 30.6905L46.4526 14.638ZM46.2 1.22509V14.0444L37.0054 30.0211L33.5828 19.0711L46.2 1.22509ZM33.267 19.9804L36.6392 30.6653L26.9142 47.5387L33.267 19.9804ZM36.917 31.423L42.3352 48.7386H26.8763L36.917 31.423ZM27.091 49.2437H42.4868L46.0232 60.5222L27.091 49.2437ZM43.1435 49.2437H49.9258L46.4399 60.2443L43.1435 49.2437ZM46.882 60.5222L50.4689 49.2437L65.9657 49.2564L46.882 60.5222ZM50.633 48.7386L56.1523 31.4104L58.9056 36.1592L66.193 48.7386H50.633ZM59.335 35.894L56.3923 30.8168L59.8023 19.9804L66.193 47.7282L59.335 35.894Z" fill="#4D4D5D"/>
<path d="M46.4399 0L33.027 18.97L25.9291 49.2437L46.4399 61.3431L67.0645 49.2437L60.0928 18.97L46.4399 0ZM59.5497 19.0711L56.026 30.1601L46.7178 14.0696V1.21246L59.5497 19.0711ZM46.4526 14.638L55.8113 30.8168L50.1026 48.7512H42.8531L37.2075 30.6905L46.4526 14.638ZM46.2 1.22509V14.0444L37.0054 30.0211L33.5828 19.0711L46.2 1.22509ZM33.267 19.9804L36.6392 30.6653L26.9142 47.5387L33.267 19.9804ZM36.917 31.423L42.3352 48.7386H26.8763L36.917 31.423ZM27.091 49.2437H42.4868L46.0232 60.5222L27.091 49.2437ZM43.1435 49.2437H49.9258L46.4399 60.2443L43.1435 49.2437ZM46.882 60.5222L50.4689 49.2437L65.9657 49.2564L46.882 60.5222ZM50.633 48.7386L56.1523 31.4104L58.9056 36.1592L66.193 48.7386H50.633ZM59.335 35.894L56.3923 30.8168L59.8023 19.9804L66.193 47.7282L59.335 35.894Z" fill="url(#paint0_linear)" fill-opacity="0.4"/>
<path d="M14.1202 65.0437V63.2755H0V86.186H14.1202V84.4179H1.76818V75.6149H12.6425V73.8467H1.76818V65.0437H14.1202Z" fill="#4D4D5D"/>
<path d="M14.1202 65.0437V63.2755H0V86.186H14.1202V84.4179H1.76818V75.6149H12.6425V73.8467H1.76818V65.0437H14.1202Z" fill="url(#paint1_linear)" fill-opacity="0.4"/>
<path d="M57.049 74.7433C57.049 71.0049 56.5059 67.8727 53.7021 65.3467C50.2542 62.2398 42.8531 62.1767 39.3294 65.3467C36.4876 67.898 35.9825 71.1691 35.9825 74.8065C35.9698 78.4818 36.5129 81.6771 39.3294 84.2157C42.8783 87.4111 50.2668 87.31 53.7021 84.2157C56.5438 81.6392 57.049 78.406 57.049 74.7433ZM55.2808 75.0591C55.2808 81.1972 52.6412 84.8093 46.4526 84.7841C45.96 84.7967 42.6257 84.8093 40.5039 82.9022C38.0916 80.7299 37.738 77.964 37.738 74.8191C37.738 71.7122 38.0916 68.8326 40.5039 66.6602C42.07 65.2457 44.4318 64.7658 46.5663 64.7784C47.0588 64.7658 50.3931 64.7531 52.5149 66.6602C55.2808 69.1483 55.2808 72.6342 55.2808 74.5034C55.2808 74.5034 55.2808 75.0843 55.2808 75.0591Z" fill="#4D4D5D"/>
<path d="M57.049 74.7433C57.049 71.0049 56.5059 67.8727 53.7021 65.3467C50.2542 62.2398 42.8531 62.1767 39.3294 65.3467C36.4876 67.898 35.9825 71.1691 35.9825 74.8065C35.9698 78.4818 36.5129 81.6771 39.3294 84.2157C42.8783 87.4111 50.2668 87.31 53.7021 84.2157C56.5438 81.6392 57.049 78.406 57.049 74.7433ZM55.2808 75.0591C55.2808 81.1972 52.6412 84.8093 46.4526 84.7841C45.96 84.7967 42.6257 84.8093 40.5039 82.9022C38.0916 80.7299 37.738 77.964 37.738 74.8191C37.738 71.7122 38.0916 68.8326 40.5039 66.6602C42.07 65.2457 44.4318 64.7658 46.5663 64.7784C47.0588 64.7658 50.3931 64.7531 52.5149 66.6602C55.2808 69.1483 55.2808 72.6342 55.2808 74.5034C55.2808 74.5034 55.2808 75.0843 55.2808 75.0591Z" fill="url(#paint2_linear)" fill-opacity="0.4"/>
<path d="M79.5427 84.9862V82.9401C79.7574 83.0917 80.1363 83.2937 80.1237 83.2937C80.9699 83.8621 91.3895 87.3353 92.703 80.7678C93.1072 77.2693 90.1265 76.0695 86.666 75.2359C85.6429 74.9959 83.9379 74.5792 82.4728 73.6951C80.6036 72.5584 79.6311 70.8912 79.6564 68.8705V68.82C80.1995 61.3305 90.417 62.6061 93.1703 64.3111V66.3192C92.5136 66.0035 91.9326 65.4352 89.1035 65.0184C85.3777 64.4753 81.7151 65.132 81.4246 68.9336C81.3993 71.7753 84.1274 72.8236 87.0827 73.5309C88.952 73.9729 91.0106 74.617 92.4883 75.8421C96.012 78.7596 94.8122 84.5946 89.975 86.0723C86.7038 87.0574 81.0836 86.1102 79.5427 84.9862Z" fill="#4D4D5D"/>
<path d="M79.5427 84.9862V82.9401C79.7574 83.0917 80.1363 83.2937 80.1237 83.2937C80.9699 83.8621 91.3895 87.3353 92.703 80.7678C93.1072 77.2693 90.1265 76.0695 86.666 75.2359C85.6429 74.9959 83.9379 74.5792 82.4728 73.6951C80.6036 72.5584 79.6311 70.8912 79.6564 68.8705V68.82C80.1995 61.3305 90.417 62.6061 93.1703 64.3111V66.3192C92.5136 66.0035 91.9326 65.4352 89.1035 65.0184C85.3777 64.4753 81.7151 65.132 81.4246 68.9336C81.3993 71.7753 84.1274 72.8236 87.0827 73.5309C88.952 73.9729 91.0106 74.617 92.4883 75.8421C96.012 78.7596 94.8122 84.5946 89.975 86.0723C86.7038 87.0574 81.0836 86.1102 79.5427 84.9862Z" fill="url(#paint3_linear)" fill-opacity="0.4"/>
<path d="M100.622 67.2664V63.8437H99.321V63.2501H102.605V63.8437H101.291V67.2664H100.622ZM103.047 67.2664V63.2501H104.032L105.042 66.4581L106.027 63.2501H107V67.2664H106.394V63.8942L105.358 67.2664H104.752L103.678 63.8437V67.2664H103.047Z" fill="#4D4D5D"/>
<path d="M100.622 67.2664V63.8437H99.321V63.2501H102.605V63.8437H101.291V67.2664H100.622ZM103.047 67.2664V63.2501H104.032L105.042 66.4581L106.027 63.2501H107V67.2664H106.394V63.8942L105.358 67.2664H104.752L103.678 63.8437V67.2664H103.047Z" fill="url(#paint4_linear)" fill-opacity="0.4"/>
<defs>
<linearGradient id="paint0_linear" x1="46.4968" y1="0" x2="46.4968" y2="61.3431" gradientUnits="userSpaceOnUse">
<stop stop-color="white"/>
<stop offset="1" stop-color="white" stop-opacity="0"/>
</linearGradient>
<linearGradient id="paint1_linear" x1="7.06008" y1="63.2755" x2="7.06008" y2="86.186" gradientUnits="userSpaceOnUse">
<stop stop-color="white"/>
<stop offset="1" stop-color="white" stop-opacity="0"/>
</linearGradient>
<linearGradient id="paint2_linear" x1="46.5156" y1="62.9928" x2="46.5156" y2="86.5745" gradientUnits="userSpaceOnUse">
<stop stop-color="white"/>
<stop offset="1" stop-color="white" stop-opacity="0"/>
</linearGradient>
<linearGradient id="paint3_linear" x1="87.0314" y1="63.0045" x2="87.0314" y2="86.4847" gradientUnits="userSpaceOnUse">
<stop stop-color="white"/>
<stop offset="1" stop-color="white" stop-opacity="0"/>
</linearGradient>
<linearGradient id="paint4_linear" x1="103.161" y1="63.2501" x2="103.161" y2="67.2664" gradientUnits="userSpaceOnUse">
<stop stop-color="white"/>
<stop offset="1" stop-color="white" stop-opacity="0"/>
</linearGradient>
</defs>
</svg>

<svg xmlns="http://www.w3.org/2000/svg" width="107" height="87" fill="none"><path fill="#4D4D5D" d="M46.44 0L33.03 18.97l-7.1 30.27 20.51 12.1 20.62-12.1-6.97-30.27L46.44 0zm13.11 19.07l-3.52 11.09-9.31-16.09V1.21l12.83 17.86zm-13.1-4.43l9.36 16.18-5.7 17.93h-7.26L37.21 30.7l9.24-16.05zM46.2 1.23v12.81L37 30.02l-3.42-10.95L46.2 1.23zM33.27 19.98l3.37 10.69-9.73 16.87 6.36-27.56zm3.65 11.44l5.42 17.32H26.88l10.04-17.32zm-9.83 17.82h15.4l3.53 11.28L27.1 49.24zm16.05 0h6.79l-3.49 11-3.3-11zm3.74 11.28l3.59-11.28 15.5.02-19.09 11.26zm3.75-11.78l5.52-17.33 2.76 4.75 7.28 12.58H50.63zm8.7-12.85l-2.94-5.07 3.41-10.84 6.4 27.75-6.87-11.84z"/><path fill="url(#paint0_linear)" fill-opacity=".4" d="M46.44 0L33.03 18.97l-7.1 30.27 20.51 12.1 20.62-12.1-6.97-30.27L46.44 0zm13.11 19.07l-3.52 11.09-9.31-16.09V1.21l12.83 17.86zm-13.1-4.43l9.36 16.18-5.7 17.93h-7.26L37.21 30.7l9.24-16.05zM46.2 1.23v12.81L37 30.02l-3.42-10.95L46.2 1.23zM33.27 19.98l3.37 10.69-9.73 16.87 6.36-27.56zm3.65 11.44l5.42 17.32H26.88l10.04-17.32zm-9.83 17.82h15.4l3.53 11.28L27.1 49.24zm16.05 0h6.79l-3.49 11-3.3-11zm3.74 11.28l3.59-11.28 15.5.02-19.09 11.26zm3.75-11.78l5.52-17.33 2.76 4.75 7.28 12.58H50.63zm8.7-12.85l-2.94-5.07 3.41-10.84 6.4 27.75-6.87-11.84z"/><path fill="#4D4D5D" d="M14.12 65.04v-1.76H0v22.9h14.12v-1.76H1.77v-8.8h10.87v-1.77H1.77v-8.8h12.35z"/><path fill="url(#paint1_linear)" fill-opacity=".4" d="M14.12 65.04v-1.76H0v22.9h14.12v-1.76H1.77v-8.8h10.87v-1.77H1.77v-8.8h12.35z"/><path fill="#4D4D5D" d="M57.05 74.74c0-3.74-.54-6.87-3.35-9.4-3.45-3.1-10.85-3.16-14.37 0-2.84 2.56-3.35 5.83-3.35 9.47-.01 3.67.53 6.87 3.35 9.4 3.55 3.2 10.94 3.1 14.37 0 2.84-2.57 3.35-5.8 3.35-9.47zm-1.77.32c0 6.14-2.64 9.75-8.83 9.72-.49.02-3.82.03-5.95-1.88-2.4-2.17-2.76-4.94-2.76-8.08 0-3.1.35-5.99 2.76-8.16 1.57-1.41 3.93-1.9 6.07-1.88.49-.01 3.82-.03 5.94 1.88 2.77 2.49 2.77 5.97 2.77 7.84 0 0 0 .58 0 .56z"/><path fill="url(#paint2_linear)" fill-opacity=".4" d="M57.05 74.74c0-3.74-.54-6.87-3.35-9.4-3.45-3.1-10.85-3.16-14.37 0-2.84 2.56-3.35 5.83-3.35 9.47-.01 3.67.53 6.87 3.35 9.4 3.55 3.2 10.94 3.1 14.37 0 2.84-2.57 3.35-5.8 3.35-9.47zm-1.77.32c0 6.14-2.64 9.75-8.83 9.72-.49.02-3.82.03-5.95-1.88-2.4-2.17-2.76-4.94-2.76-8.08 0-3.1.35-5.99 2.76-8.16 1.57-1.41 3.93-1.9 6.07-1.88.49-.01 3.82-.03 5.94 1.88 2.77 2.49 2.77 5.97 2.77 7.84 0 0 0 .58 0 .56z"/><path fill="#4D4D5D" d="M79.54 84.99v-2.05c.22.15.6.35.58.35.85.57 11.27 4.05 12.58-2.52.4-3.5-2.57-4.7-6.03-5.53a14.63 14.63 0 01-4.2-1.54 5.38 5.38 0 01-2.81-4.83v-.05c.54-7.49 10.76-6.21 13.51-4.5v2c-.66-.32-1.24-.88-4.07-1.3-3.72-.54-7.38.11-7.68 3.91-.02 2.85 2.7 3.9 5.66 4.6 1.87.44 3.93 1.09 5.4 2.31 3.53 2.92 2.33 8.75-2.5 10.23-3.28.99-8.9.04-10.44-1.08z"/><path fill="url(#paint3_linear)" fill-opacity=".4" d="M79.54 84.99v-2.05c.22.15.6.35.58.35.85.57 11.27 4.05 12.58-2.52.4-3.5-2.57-4.7-6.03-5.53a14.63 14.63 0 01-4.2-1.54 5.38 5.38 0 01-2.81-4.83v-.05c.54-7.49 10.76-6.21 13.51-4.5v2c-.66-.32-1.24-.88-4.07-1.3-3.72-.54-7.38.11-7.68 3.91-.02 2.85 2.7 3.9 5.66 4.6 1.87.44 3.93 1.09 5.4 2.31 3.53 2.92 2.33 8.75-2.5 10.23-3.28.99-8.9.04-10.44-1.08z"/><path fill="#4D4D5D" d="M100.62 67.27v-3.43h-1.3v-.59h3.29v.6h-1.32v3.42h-.67zm2.43 0v-4.02h.98l1.01 3.2.99-3.2h.97v4.02h-.6v-3.38l-1.04 3.38h-.6l-1.08-3.43v3.43h-.63z"/><path fill="url(#paint4_linear)" fill-opacity=".4" d="M100.62 67.27v-3.43h-1.3v-.59h3.29v.6h-1.32v3.42h-.67zm2.43 0v-4.02h.98l1.01 3.2.99-3.2h.97v4.02h-.6v-3.38l-1.04 3.38h-.6l-1.08-3.43v3.43h-.63z"/><defs><linearGradient id="paint0_linear" x1="46.497" x2="46.497" y1="0" y2="61.343" gradientUnits="userSpaceOnUse"><stop stop-color="#fff"/><stop offset="1" stop-color="#fff" stop-opacity="0"/></linearGradient><linearGradient id="paint1_linear" x1="7.06" x2="7.06" y1="63.276" y2="86.186" gradientUnits="userSpaceOnUse"><stop stop-color="#fff"/><stop offset="1" stop-color="#fff" stop-opacity="0"/></linearGradient><linearGradient id="paint2_linear" x1="46.516" x2="46.516" y1="62.993" y2="86.575" gradientUnits="userSpaceOnUse"><stop stop-color="#fff"/><stop offset="1" stop-color="#fff" stop-opacity="0"/></linearGradient><linearGradient id="paint3_linear" x1="87.031" x2="87.031" y1="63.005" y2="86.485" gradientUnits="userSpaceOnUse"><stop stop-color="#fff"/><stop offset="1" stop-color="#fff" stop-opacity="0"/></linearGradient><linearGradient id="paint4_linear" x1="103.161" x2="103.161" y1="63.25" y2="67.266" gradientUnits="userSpaceOnUse"><stop stop-color="#fff"/><stop offset="1" stop-color="#fff" stop-opacity="0"/></linearGradient></defs></svg>
